img/section-option-2.svg

<svg width="93" height="76" viewBox="0 0 93 76" fill="none" xmlns="http://www.w3.org/2000/svg">
<path fill-rule="evenodd" clip-rule="evenodd" d="M74.2944 0.996094L62.05 19.4152L49.3953 0.996094H74.2944ZM60.1059 23.6264H32.9431L46.5226 75.0264L60.1059 23.6264ZM33.85 20.6082H59.1972L46.5226 2.16009L33.85 20.6082ZM30.9976 19.4152L43.6511 0.996094H18.7541L30.9976 19.4152ZM43.645 75.9962L29.809 23.6264H-0.00012207L43.645 75.9962ZM0.0425019 20.6082H28.1569L15.9099 2.18567L0.0425019 20.6082ZM77.1165 2.22077L64.8923 20.6082H92.9573L77.1165 2.22077ZM63.2386 23.6264L49.4007 75.9908L93 23.6264H63.2386Z" fill="white"/>
</svg>

<svg width="93" height="76" fill="none" xmlns="http://www.w3.org/2000/svg"><path fill-rule="evenodd" clip-rule="evenodd" d="M74.294.996L62.05 19.416 49.395.995h24.9zm-14.188 22.63H32.943l13.58 51.4 13.583-51.4zM33.85 20.608h25.347L46.523 2.16 33.85 20.608zm-2.852-1.193L43.65.996H18.754l12.244 18.42zm12.647 56.581l-13.836-52.37H-.001l43.646 52.37zM.043 20.608h28.114L15.91 2.186.043 20.608zM77.117 2.221L64.892 20.608h28.065L77.117 2.221zM63.239 23.626L49.4 75.991 93 23.626H63.239z" fill="#fff"/></svg>
